X: 29657
T: Northside, The
R: jig
M: 6/8
K: Amixolydian
|:EAA ABA|GEF GF/E/D|EAA Bcd|eaf ged|
~c3 ABA|GEF G2e|dBA GAB|1 cAA A2D:|2 cAA A2e||
|:eaa efg|dBG {A}GFG|eaa efg|fed ef^g|
~a3 cdc|~B3 GAB|~=c3 dBG|1 ABA A2e:|2 ABA AGF||

